X:1
T:Title
%%score [ ( 1 2 ) ( 3 4 ) ]
L:1/8
Q:1/4=100
M:4/4
K:Eb
V:1 treble nm="S A"
V:2 treble 
V:3 bass nm="T B"
V:4 bass 
V:1
"^John Henry Newman\n(1801-90)""^Firmly I believe and truly""^S. S. Wesley\n(1810-1876)""^Stafford (87. 87)" C2 D2 E2 D2 | %1
 E2 F2 G2 G2 | c2 d2 e2 d2 | c2 =B2 c4 | e2 e2 d2 d2 | c2 d2 =B2 G2 | E2 F2 G2 A2 | E2 D2 C4 |] %8
V:2
 G,2 =B,2 C2 D2 | C2 D2 D2 D2 | F2 F2 E2 =A2 | G2 F2 E4 | G2 G2 ^F2 F2 | G2 =A2 D2 =B,2 | %6
 C2 D2 E2 C2 | C2 =B,2 G,4 |] %8
V:3
"^1. Firmly I believe and truly\nGod is Three, and God is One;\nAnd I next acknowledge duly\nManhood taken by the Son.\n\n2. And I trust and hope most fully\nIn that manhood crucified;\nAnd each thought and deed unruly\nDo to death, as He has died.\n\n3. Simply to His grace and wholly\nLight and life and strength belong,\nAnd I love supremely, solely,\nHim the holy, Him the strong." E,2 G,2 G,2 G,2 | %1
 G,2 DC =B,2 B,2 | C2 B,2 B,2 D2 | E2 D2 C4 | %4
"^4. And I hold in veneration,\nFor the love of Him alone,\nHoly Church as His creation,\nAnd her teachings are His own.\n\n5. And I take with joy whatever\nNow besets me, pain or fear,\nAnd with a strong will I sever\nAll the ties which bind me here.\n\n6. Adoration aye be given,\nWith and through the angelic host,\nTo the God of earth and Heaven,\nFather, Son and Holy Ghost." C2 B,2 =A,2 B,2 | %5
 B,2 =A,2 G,2 G,2 | G,2 B,2 B,2 A,2 | G,2 G,2 E,4 |] %8
V:4
 C,2 G,,2 C,2 =B,,2 | C,2 _B,,A,, G,,2 G,,2 | A,,2 A,2 G,2 ^F,2 | G,2 G,,2 C,4 | C,2 C,2 D,2 D,2 | %5
 =E,2 ^F,2 G,2 G,,2 | C,2 B,,2 E,2 F,2 | G,2 G,,2 C,4 |] %8

